src/16/panel/qbittorrent-tray.svg

<svg xmlns="http://www.w3.org/2000/svg" width="16" height="16" version="1">
 <defs>
  <style id="current-color-scheme" type="text/css">
   .ColorScheme-Text { color:#dfdfdf; } .ColorScheme-Highlight { color:#4285f4; }
  </style>
 </defs>
 <path style="fill:currentColor" class="ColorScheme-Text" d="M 9,1 C 8.446,1 8,1.446 8,2 V 11 C 8,11.554 8.446,12 9,12 9.554,12 10,11.554 10,11 V 10.826 C 10.321,10.94 10.659,10.999 11,11 12.657,11 14,9.6569 14,8 14,6.3431 12.657,5 11,5 10.659,5.0014 10.321,5.0608 10,5.1758 V 2 C 10,1.446 9.554,1 9,1 Z M 10,7 H 12 V 9 H 10 Z"/>
 <path style="opacity:0.3;fill:currentColor" class="ColorScheme-Text" d="M 6,4 C 5.446,4 5,4.446 5,5 V 5.1738 C 4.679,5.0595 4.3408,5.0007 4,5 2.3431,5 1,6.3431 1,8 1,9.6569 2.3431,11 4,11 4.3409,10.999 4.6791,10.939 5,10.824 V 14 C 5,14.554 5.446,15 6,15 6.554,15 7,14.554 7,14 V 5 C 7,4.446 6.554,4 6,4 Z M 3,7 H 5 V 9 H 3 Z"/>
</svg>

<svg xmlns="http://www.w3.org/2000/svg" width="16" height="16" version="1"><defs><style id="current-color-scheme" type="text/css"></style></defs><path d="M9 1c-.554 0-1 .446-1 1v9c0 .554.446 1 1 1s1-.446 1-1v-.174A3 3 0 1 0 11 5a3 3 0 0 0-1 .176V2c0-.554-.446-1-1-1zM6 4c-.554 0-1 .446-1 1v.174A3 3 0 1 0 4 11c.34-.001.68-.06 1-.176V14c0 .554.446 1 1 1s1-.446 1-1V5c0-.554-.446-1-1-1zm4 3h2v2h-2V8zM3 7h2v2H3V8z" fill="currentColor" color="#bebebe"/></svg>
